cb/favorite.svg

<svg viewBox="0 0 16 15" version="1.1" xmlns="http://www.w3.org/2000/svg" fill-rule="evenodd" height="1em" width="1em">
  <path d="M8.10901699,11.75 L3.60901699,14.95 C3.40901699,15.05 3.10901699,14.95 3.20901699,14.65 L4.70901699,9.55 L0.109016994,6.35 C-0.0909830056,6.15 0.00901699437,5.85 0.209016994,5.85 L5.70901699,5.35 L7.70901699,0.15 C7.80901699,-0.05 8.10901699,-0.05 8.20901699,0.15 L10.209017,5.35 L15.709017,5.85 C15.909017,5.85 16.009017,6.15 15.809017,6.25 L11.309017,9.55 L12.809017,14.65 C12.909017,14.85 12.609017,15.05 12.409017,14.95 L8.10901699,11.75 L8.10901699,11.75 Z" stroke="none" fill="#000000"/>
</svg>

<svg viewBox="0 0 16 15" xmlns="http://www.w3.org/2000/svg" fill-rule="evenodd" height="1em" width="1em">
  <path d="m8.109 11.75-4.5 3.2c-.2.1-.5 0-.4-.3l1.5-5.1-4.6-3.2c-.2-.2-.1-.5.1-.5l5.5-.5 2-5.2c.1-.2.4-.2.5 0l2 5.2 5.5.5c.2 0 .3.3.1.4l-4.5 3.3 1.5 5.1c.1.2-.2.4-.4.3l-4.3-3.2Z"/>
</svg>
